!! 00000] TT[WS
!!!OTL: Dawo ge
!!!ARE: Asia, China, Shanxi Taigu
!! Ethnic Group: Han
!! WII, 39 (1)
!!!SCT: J0451
!!!YEM: Copyright 1995, estate of Helmut Schaffrath.
**kern
*ICvox
*Ivox
*M2/4
*k[]
*C:
{4dd
8dd
8ee
=1
4a
4cc
=2
8dd
8ee
8dd
8cc
=3
8dd
8ee
4a
=4
4g
4g}
=5
{8a
8a
8cc
8a
=6
4g
4g}
=7
{8cc
8e
4g
=8
8dd
8ee
8dd
8cc
=9
4a
4cc
=10
4a
4e
=11
4g
4g}
=12
{4cc
8cc
8a
=13
4g
8g
8a
=14
4d
8f
8a
=15
4g
4r}
==
!!!AGN: Haozi. Laodong, Dawo
!!!ONB: ESAC (Essen Associative Code) Database: CHINA
!!!AMT: simple duple
!!!AIN: vox
!!!EED: Helmut Schaffrath
!!!EEV: 1.0
*-
